X:801
M:C
L:1/8
K:E Minor
f<d a>f e/e/e e:|
f|g>be>b g>ee>g|f>da>d f<d d>f|g>be>b g<e e>g|f>da>f e/e/e e>f|
g>be>b g<e e>g|f>da>d f<d d>f|g>ba>f g>ef>d|e>Bd>F E/E/E ~E||

